images/sass-logo-stijn-de-vries.svg

<?xml version="1.0" encoding="UTF-8"?>
<svg width="26px" height="31px" viewBox="0 0 26 31" version="1.1" xmlns="http://www.w3.org/2000/svg" xmlns:xlink="http://www.w3.org/1999/xlink">
    <!-- Generator: Sketch Beta 62 (91388) - https://sketch.com -->
    <title>sass-logo-stijn-de-vries</title>
    <desc>Created with Sketch Beta.</desc>
    <g id="sass-logo-stijn-de-vries" stroke="none" stroke-width="1" fill="none" fill-rule="evenodd">
        <path d="M25.4055287,4.60857571 C26.3007972,8.1182239 23.4095644,12.3809509 19.3692218,13.9462289 C16.4803516,15.06301 13.5809316,15.2109729 11.8917044,14.6567389 C10.7225792,14.2732658 9.77625722,13.4876719 9.41464594,12.7467123 L9.32945866,12.5447248 L9.31537442,12.5069475 C9.28627318,12.4274138 9.26361946,12.3565459 9.24564723,12.2829829 C9.14907564,11.8877014 9.21041629,11.5150144 9.60976796,11.2925417 C10.0724115,11.0398671 10.3103686,11.1814887 10.7911548,11.7109098 C10.9426861,11.8781486 11.2789633,12.0994444 11.725267,12.2644253 C12.3787674,12.5059985 13.178488,12.6010798 14.12606,12.4949125 C19.3413567,11.9102415 23.3135185,7.80028224 22.2152496,5.38812275 C21.4330686,3.67035696 16.6382758,3.53037308 11.6900274,5.99630092 C6.21444684,8.72489213 4.56455201,10.9048376 4.44487461,13.0934832 C4.36973286,14.472189 5.08143243,15.4161249 7.25076653,17.132588 L8.49601174,18.1004881 L8.90274815,18.4251873 C9.34039704,18.7806079 9.65851984,19.0628186 9.95731958,19.3628905 L10.089,19.498 L10.2696049,19.4506997 C10.7977759,19.3203112 11.4341415,19.2403678 12.2319633,19.2037235 L12.5388187,19.1919976 L12.8614348,19.1842472 C16.3299995,19.1240451 18.8529129,21.3885262 18.7493005,24.0169453 C18.6877189,25.5680885 17.4422407,26.6958837 16.4727231,26.8590983 C15.9620155,26.9469875 15.5848824,26.8527043 15.4802374,26.2822113 C15.3993772,25.8355554 15.547018,25.6894446 16.026515,25.3937864 C16.4295254,25.1452899 16.7440607,24.792017 16.8126817,24.3131949 C16.9685125,23.2258423 15.8820079,21.9212801 13.4726056,21.6398267 C12.9060471,21.5737208 12.3898079,21.5623136 11.9052849,21.6014561 L11.6182283,21.6309743 L11.406,21.662 L11.4139153,21.6857268 C11.8347351,23.2047858 11.6569507,25.2095684 10.7988515,26.8176197 L10.6403435,27.0970955 L10.4855276,27.3406907 C8.91287254,29.685434 6.08209194,30.8992071 3.45477,30.1679909 C1.96225666,29.7520727 1.10192366,27.4436939 2.11970008,25.1931179 C2.61284248,24.1028931 3.76638047,23.0167523 5.37454688,21.9334367 C5.80427852,21.6439549 6.24953636,21.3669152 6.6990791,21.1050897 L7.1496338,20.8484383 L7.385,20.718 L6.00015083,19.7283606 L4.78038391,18.8732647 C2.28125755,17.0466656 0.856649837,15.4366941 0.476972551,13.4707857 C0.15774782,11.8240158 1.25319445,9.28580611 3.81834722,6.88656683 C6.02049029,4.82719368 9.1116404,3.06407986 12.4735984,1.80903073 L12.9799025,1.6245902 C18.5940086,-0.369662651 24.4564331,0.884651138 25.4055287,4.60857571 Z M8.839,22.712 L8.64392028,22.823909 C8.12077272,23.1266587 7.60214086,23.4691437 7.11995193,23.847368 C6.76187623,24.1282391 6.43868508,24.4178665 6.15853774,24.7140062 C5.14608792,25.7842894 4.81933407,27.1012135 5.11285074,27.2715445 C5.54057534,27.5198042 6.81982599,27.062807 7.69259859,26.1110903 C8.01942547,25.754172 8.28019526,25.3750386 8.47237123,24.9761564 C8.50954634,24.8994827 8.54498174,24.8194028 8.57863488,24.73651 C8.61424318,24.6479235 8.64407233,24.5669304 8.67027486,24.4867951 C8.84880852,23.9477275 8.90995417,23.3766865 8.84819711,22.7778679 L8.839,22.712 Z" id="Shape" fill="#ED5995" fill-rule="nonzero"></path>
    </g>
</svg>

<svg xmlns="http://www.w3.org/2000/svg" width="26" height="31" viewBox="0 0 26 31"><title>sass-logo-stijn-de-vries</title><path fill="#ED5995" fill-rule="nonzero" d="M25.406 4.609c.895 3.51-1.996 7.772-6.037 9.337-2.889 1.117-5.788 1.265-7.477.71-1.17-.383-2.116-1.168-2.477-1.91l-.086-.201-.014-.038c-.029-.08-.051-.15-.07-.224-.096-.395-.035-.768.365-.99.462-.253.7-.112 1.181.418.152.167.488.388.934.553.654.242 1.453.337 2.401.23 5.215-.584 9.188-4.694 8.09-7.106-.783-1.718-5.578-1.858-10.526.608-5.476 2.729-7.125 4.909-7.245 7.097-.075 1.38.636 2.323 2.806 4.04l1.245.967.407.325c.437.356.756.638 1.054.938l.132.135.18-.047c.529-.13 1.165-.21 1.963-.247l.307-.012.322-.008c3.469-.06 5.992 2.205 5.888 4.833-.061 1.551-1.307 2.679-2.276 2.842-.511.088-.888-.006-.993-.577-.08-.446.067-.593.547-.888.403-.249.717-.602.786-1.08.156-1.088-.931-2.393-3.34-2.674a7.945 7.945 0 0 0-1.568-.039l-.287.03-.212.031.008.024c.42 1.519.243 3.524-.615 5.132l-.159.28-.154.243c-1.573 2.344-4.404 3.558-7.031 2.827-1.493-.416-2.353-2.724-1.335-4.975.493-1.09 1.646-2.176 3.255-3.26.43-.289.875-.566 1.324-.828l.45-.257.236-.13L6 19.728l-1.22-.855C2.281 17.047.857 15.437.477 13.471c-.32-1.647.776-4.185 3.341-6.584 2.202-2.06 5.294-3.823 8.656-5.078l.506-.184C18.594-.37 24.456.885 25.406 4.609zM8.839 22.712l-.195.112c-.523.303-1.042.645-1.524 1.023-.358.281-.681.57-.961.867-1.013 1.07-1.34 2.387-1.046 2.558.428.248 1.707-.21 2.58-1.16.326-.358.587-.737.78-1.136a3.99 3.99 0 0 0 .197-.49c.179-.538.24-1.11.178-1.708l-.009-.066z"/></svg>
